X:1
T:Title
%%score { ( 1 3 ) | 2 }
L:1/8
M:4/4
K:Bb
V:1 treble nm="Grand Piano"
V:3 treble 
V:2 bass 
V:1
 z4 z2[Q:1/4=100] [B,D]>[CE] | [DF]2 [_DG]>[D=E] [=DF]2 [DB]>[_Ec] | %2
 [Fd]2 [Fd]>[Ec] [DB]2 [FB]>[_AB] | [Gc]2 [GB]>[FA] G2 A>B | F6 [DF]>[DF] | %5
 [A,D^F]2 [A,DF]>[A,DF] [B,DG]2 [B,DG]>[B,G] | [C^FA]2 [DFB]>[CFA] [B,DG]2 [B,DG]>[B,DG] | %7
 [=Ec]2 [Ed]>[Ec] [EG]2 [EA]>[EG] | F6 F>F | c6 z2 | d6 z2 | B2 A>G D2 A>B | %12
[M:17/16] G/-G/-G/-G/-G-<GA/-A/-A/-A/-A/-A-<A |[M:6/8] [DF][DF]>[DG] [DA][DB][Fd] | %14
 [Ec][DB][K:bass][F,B,D] [F,CE][K:treble] [B,DF]2 | [B,DF][B,EG]>[B,FA] [B,GB][B,F][DB] | %16
 [Fd][=Ed]>[Ec] [EB] c2 | z [Fd]2- [Fd] [DB]2 |[M:7/8] z [EG]3 z z2 |[M:3/4] [Ge]d- d/c/B AB | %20
[M:5/8] cB-[DB-] [EB-][DB]- | [DB] z z z2 |] %22
V:2
 z4 z2 [B,,F,]2 | [B,,B,]2 [B,,B,]>[B,,B,] [B,,B,]2 [B,,F,]>[B,,F,] | %2
 [B,,B,]2 [B,,F,]>[B,,F,] [B,,F,]2 [D,B,]>[D,B,] | [E,B,]2 [E,E]>[E,E] [E,B,E]2 [F,B,E]>[G,B,E] | %4
 [B,D]6 [B,,B,]>[B,,B,] | D,2 D,>C, B,,2 G,,>G,, | D,2 D,>D, G,2 G,>G, | %7
 [C,G,]2 [C,G,]>[C,G,] [C,B,]2 [C,C]>[C,B,] | [F,A,]6 z2 | z2 [F,A,]>[F,A,] [F,A,]2 z2 | %10
 z2 [B,,B,]>[B,,B,] [B,,B,]2 G,>A, | B,2 A,>G, D,2 A,>B, | %12
[M:17/16] G,/-G,/-G,/-G,/-G,-<G,[F,CE]/-[F,CE]/-[F,CE]/-[F,CE]/-[F,CE]/-[F,CE]-<[F,CE] | %13
[M:6/8] [B,,B,][B,,B,]>[B,,F,] [B,,F,][B,,F,][B,,F,] | [B,,F,][B,,F,]B,, B,, B,,2 | %15
 B,,E,>E, E,D,[B,,B,] | [B,,B,][C,G,]>[C,G,] [C,G,] [F,A,E]2 | [F,A,][B,,B,]>B,, B,,[B,,F,]B,, | %18
[M:7/8] B,,E,E, E, [C,C]3 |[M:3/4] [E,B,][F,B,F]- [F,B,F]/[F,EF]/[F,DF] [F,CF][F,DF] | %20
[M:5/8] [F,A,E][B,,B,][B,,F,] [B,,G,][B,,F,]- | [B,,F,] z z z2 |] %22
V:3
 x8 | x8 | x8 | x8 | x8 | x8 | x8 | x8 | x8 | z2 E>E E2 F>F | z2 F>F F2 G>A | x8 |[M:17/16] x17/2 | %13
[M:6/8] x6 | x2[K:bass] x2[K:treble] x2 | x6 | x6 | .F2 z/ B,/ .B,2 F, | %18
[M:7/8] [B,DF]B,B, B, [Ge]3 |[M:3/4] x6 |[M:5/8] z D z z2 | x5 |] %22

